dist/img/sprites/home.svg

<svg width="25" height="24" viewBox="0 0 25 24" fill="none" xmlns="http://www.w3.org/2000/svg">
<path d="M4.26172 19H6.26172V11H18.2617V19H20.2617V8.35L12.2617 5.15L4.26172 8.35V19ZM2.26172 21V7L12.2617 3L22.2617 7V21H16.2617V13H8.26172V21H2.26172ZM9.26172 21V19H11.2617V21H9.26172ZM11.2617 18V16H13.2617V18H11.2617ZM13.2617 21V19H15.2617V21H13.2617Z" fill="#8C8C8C"/>
</svg>

<svg width="25" height="24" viewBox="0 0 25 24" fill="none" xmlns="http://www.w3.org/2000/svg"><path d="M4.262 19h2v-8h12v8h2V8.35l-8-3.2-8 3.2V19zm-2 2V7l10-4 10 4v14h-6v-8h-8v8h-6zm7 0v-2h2v2h-2zm2-3v-2h2v2h-2zm2 3v-2h2v2h-2z" fill="#8C8C8C"/></svg>
